X:186
T: HAESCHEN IN DER GRUBE
N: K2409A
O: Europa, Mitteleuropa, Deutschland, Thueringen
R: Kinder - Lied, Tanz -, Lauf - Spiel
M: 2/4
L: 1/8
K: D
 | AAFB | A2F2
A2FB | A2z2
AAFD | dBA2
AAFD | dBA2 | z2
AA | d2AA | d2z2

